X: 24054
T: Lonely Maid, The
R: reel
M: 4/4
K: Dmixolydian
DFAc B2AF|DFAc B2Ac|BEE2 BAFA|Bdce dBAF|DFAc B2AF|
DFAc B2AF|1 GABc dedc|BAGE FDDE:|2 GABc dcdB|cAGE FDDg||
K:D
fdd2 fdad|fdd2 adfd|A2(3cBA eA (3cBA|cdef gfeg|
fdd2 fdad|fdd2 adfd|(3Bcd ef gecA|1 dfec d2de:|2 dfec d2AF||

